svgs/sharp-regular/id-card.svg

<svg xmlns="http://www.w3.org/2000/svg" viewBox="0 0 576 512"><!--! Font Awesome Pro 6.6.0 by @fontawesome - https://fontawesome.com License - https://fontawesome.com/license (Commercial License) Copyright 2024 Fonticons, Inc. --><path d="M528 160l0 272-213.3 0L288 352l-160 0-26.7 80L48 432l0-272 480 0zM48 32L0 32 0 80 0 432l0 48 48 0 480 0 48 0 0-48 0-352 0-48-48 0L48 32zM272 256a64 64 0 1 0 -128 0 64 64 0 1 0 128 0zm104-48l-24 0 0 48 24 0 80 0 24 0 0-48-24 0-80 0zm0 96l-24 0 0 48 24 0 80 0 24 0 0-48-24 0-80 0z"/></svg>

<svg xmlns="http://www.w3.org/2000/svg" viewBox="0 0 576 512"><!--! Font Awesome Pro 6.4.0 by @fontawesome - https://fontawesome.com License - https://fontawesome.com/license (Commercial License) Copyright 2023 Fonticons, Inc. --><path d="M528 160V432H314.7L288 352H128l-26.7 80H48V160H528zM48 32H0V80 432v48H48 528h48V432 80 32H528 48zM272 256a64 64 0 1 0 -128 0 64 64 0 1 0 128 0zm104-48H352v48h24 80 24V208H456 376zm0 96H352v48h24 80 24V304H456 376z"/></svg>
